lightbulb-night-outline.svg

<svg fill="currentColor" viewBox="0 0 24 24"><path d="M6 20h6v1c0 .55-.45 1-1 1H7c-.55 0-1-.45-1-1zm5-5.11V16H7v-2.42C5.23 12.81 4 11.05 4 9c0-2.76 2.24-5 5-5 .9 0 1.73.26 2.46.67.54-.47 1.2-.86 1.89-1.17C12.16 2.57 10.65 2 9 2 5.13 2 2 5.13 2 9c0 2.38 1.19 4.47 3 5.74V17c0 .55.45 1 1 1h6c.55 0 1-.45 1-1v-.68c-.75-.36-1.43-.82-2-1.43m9.92-4.95-.5-1.64 1.3-1.08-1.68-.04-.63-1.58-.56 1.61-1.68.11 1.33 1.03-.4 1.65 1.4-.97zm-1.8 2.31a4.62 4.62 0 0 1-3.27-2.28c-.73-1.26-.8-2.72-.35-4 .14-.34-.16-.68-.5-.63-3.44.66-5 4.79-2.78 7.61 1.81 2.24 5.28 2.32 7.17.05.23-.26.08-.7-.27-.75"/></svg>

<svg  viewBox="0 0 24 24" fill="currentColor"><path  d="M6 20H12V21C12 21.55 11.55 22 11 22H7C6.45 22 6 21.55 6 21V20M11 14.89V16H7V13.58C5.23 12.81 4 11.05 4 9C4 6.24 6.24 4 9 4C9.9 4 10.73 4.26 11.46 4.67C12 4.2 12.66 3.81 13.35 3.5C12.16 2.57 10.65 2 9 2C5.13 2 2 5.13 2 9C2 11.38 3.19 13.47 5 14.74V17C5 17.55 5.45 18 6 18H12C12.55 18 13 17.55 13 17V16.32C12.25 15.96 11.57 15.5 11 14.89M20.92 9.94L20.42 8.3L21.72 7.22L20.04 7.18L19.41 5.6L18.85 7.21L17.17 7.32L18.5 8.35L18.1 10L19.5 9.03L20.92 9.94M19.12 12.25C17.79 12.03 16.58 11.24 15.85 9.97C15.12 8.71 15.05 7.25 15.5 5.97C15.64 5.63 15.34 5.29 15 5.34C11.56 6 10 10.13 12.22 12.95C14.03 15.19 17.5 15.27 19.39 13C19.62 12.74 19.47 12.3 19.12 12.25Z"/></svg>
